Flat-Remix-Dark/apps/scalable/dino.svg

<svg xmlns="http://www.w3.org/2000/svg" xmlns:xlink="http://www.w3.org/1999/xlink" width="384pt" height="384pt" version="1.1" viewBox="0 0 384 384"> <defs> <filter id="alpha" width="100%" height="100%" x="0%" y="0%" filterUnits="objectBoundingBox"> <feColorMatrix in="SourceGraphic" type="matrix" values="0 0 0 0 1 0 0 0 0 1 0 0 0 0 1 0 0 0 1 0"/> </filter> <mask id="mask3"> <g filter="url(#alpha)"> <rect style="fill:rgb(0%,0%,0%);fill-opacity:0.2" width="384" height="384" x="0" y="0"/> </g> </mask> <clipPath id="clip4"> <rect width="384" height="384" x="0" y="0"/> </clipPath> <g id="surface14" clip-path="url(#clip4)"> <path d="M 120 168.070312 C 120 178.011719 111.941406 186.070312 102 186.070312 C 92.058594 186.070312 84 178.011719 84 168.070312 C 84 158.132812 92.058594 150.070312 102 150.070312 C 111.941406 150.070312 120 158.132812 120 168.070312 Z M 120 168.070312" style="fill-rule:evenodd;fill:rgb(0%,0%,0%)"/> </g> </defs> <path d="m 169.14844,114.89062 c -25.40625,0 -48.50781,1.52735 -68.22657,6.11719 -43.058595,2.49219 -76.921871,87.5625 -76.921871,95.83594 0.03125,19.46094 5.042969,38.44531 14.367188,54.44531 C 61.656249,319.34375 110.85547,352.5 167.83594,352.5 c 26.58072,0 51.47425,-7.21616 72.84081,-19.78565 41.21664,14.60531 108.4536,37.14096 113.53419,30.62111 5.83462,-7.48707 -34.69577,-70.19811 -53.76417,-98.82277 7.24275,-17.17084 11.24854,-36.04169 11.24854,-55.84863 0,-79.4414 -63.10547,-93.77344 -142.54687,-93.77344 z" style="opacity:0.3"/> <path style="fill-rule:evenodd;opacity:0.3" d="m 349.74219,357.71094 c 0,0 16.45312,-29.89063 12.70312,-36.28125 -3.29687,-5.6211 -33.55469,-4.24219 -33.55469,-4.24219 0,0 25.61329,-31.06641 21.5586,-37.98047 -3.9961,-6.8125 -47.44921,-10.63672 -47.44921,-10.63672 0,0 47.43358,-15.85547 48.79296,-23.64844 1.42578,-8.17187 -42.48438,-37.69531 -42.48438,-37.69531 0,0 32.60547,-54.35156 29.54688,-61.60547 -3.83985,-9.10155 -50.25,-9.05078 -50.25,-9.05078 0,0 20.55078,-65.835934 12.08595,-71.195304 -7.10939,-4.5 -85.87891,19.93359 -85.87891,19.93359 0,0 -23.60547,-56.73828 -36.74609,-56.73828 -13.22658,0 -41.16407,56.82031 -41.16407,56.82031 0,0 -47.582032,-37.64062 -56.171872,-32.75781 -7.58985,4.3125 -4.16407,65.957024 -4.16407,65.957024 z m 0,0"/> <path style="fill:rgb(29.803%,29.803%,29.803%);fill-rule:evenodd" d="m 346.74219,353.21094 c 0,0 16.45312,-29.89063 12.70312,-36.28125 -3.29687,-5.6211 -33.55469,-4.24219 -33.55469,-4.24219 0,0 25.61329,-31.06641 21.5586,-37.98047 C 343.45312,267.89453 300,264.07031 300,264.07031 c 0,0 47.43359,-15.85547 48.79297,-23.64844 1.42578,-8.17187 -42.48438,-37.69531 -42.48438,-37.69531 0,0 32.60547,-54.35156 29.54688,-61.60547 -3.83985,-9.10156 -50.25,-9.05078 -50.25,-9.05078 0,0 20.55078,-65.835935 12.08594,-71.19531 -7.10938,-4.5 -85.87891,19.933594 -85.87891,19.933594 0,0 -23.60547,-56.738282 -36.74609,-56.738282 -13.22657,0 -41.16407,56.820313 -41.16407,56.820313 0,0 -47.582028,-37.640625 -56.171871,-32.757813 -7.589844,4.3125 -4.164063,65.957028 -4.164063,65.957028 z m 0,0"/> <path d="M 225.53125 147.1875 C 191.65625 147.1875 160.85417 149.22396 134.5625 155.34375 C 77.151035 158.66667 32 272.09375 32 283.125 C 32.041667 309.07292 38.723958 334.38542 51.15625 355.71875 C 82.208333 419.79167 147.80729 464 223.78125 464 C 259.22221 464 292.41359 454.37846 320.90234 437.61914 C 375.85785 457.09288 465.50714 487.14041 472.28125 478.44727 C 480.06074 468.46451 426.02023 384.84981 400.5957 346.68359 C 410.25269 323.78914 415.59375 298.62801 415.59375 272.21875 C 415.59375 166.29688 331.45312 147.1875 225.53125 147.1875 z" transform="scale(0.75)" style="fill:rgb(29.019%,68.235%,90.196%)"/> <path d="M 233.42188 32.09375 C 215.78645 32.09375 178.53711 107.85352 178.53711 107.85352 C 178.53711 107.85352 115.09375 57.667321 103.64062 64.177734 C 93.520833 69.927734 98.087891 152.11914 98.087891 152.11914 L 101.95898 155.50781 C 101.34326 142.98077 98.453157 75.397988 107.64062 70.177734 C 119.09374 63.667318 182.53711 113.85352 182.53711 113.85352 C 182.53711 113.85352 219.78643 38.09375 237.42188 38.09375 C 242.4385 38.09375 248.59979 44.307772 254.83789 53.160156 C 247.28518 41.237032 239.51089 32.09375 233.42188 32.09375 z M 393.04688 80.433594 C 372.46854 80.072808 289.83898 105.45538 283.6582 107.36328 C 285.38667 111.28248 286.41602 113.74414 286.41602 113.74414 C 286.41602 113.74414 383.44118 83.649826 399.38477 86.644531 C 399.01285 83.914917 398.22916 81.993705 396.92188 81.166016 C 396.18131 80.697266 394.85814 80.465349 393.04688 80.433594 z M 386.58594 176.18555 C 385.55884 179.62628 384.80664 182.09375 384.80664 182.09375 C 384.80664 182.09375 433.47759 182.04891 448.04492 190.50977 C 448.11685 189.52905 448.04737 188.73303 447.80664 188.16211 C 443.60788 178.20983 401.69597 176.49125 386.58594 176.18555 z M 413.77539 274.00586 C 413.11517 275.11909 412.41211 276.30273 412.41211 276.30273 C 412.41211 276.30273 451.32277 302.46873 464.66602 318.03906 C 460.4493 307.19261 426.71597 283.00091 413.77539 274.00586 z M 416.02148 353.85938 C 408.94911 356.43232 404 358.09375 404 358.09375 C 404 358.09375 450.07087 362.15514 463.80859 369.47852 C 463.90502 368.19195 463.74902 367.09967 463.26562 366.27539 C 459.7634 360.30485 433.58938 356.07046 416.02148 353.85938 z M 447.51758 416.73047 C 446.00984 416.71564 444.75853 416.73218 443.42578 416.74023 C 440.53851 420.45651 438.52148 422.91602 438.52148 422.91602 C 438.52148 422.91602 469.24506 421.51688 479.98828 426.14258 C 479.99178 424.67644 479.77514 423.45055 479.25977 422.57227 C 476.51237 417.88802 459.72339 416.85055 447.51758 416.73047 z" transform="scale(0.75)" style="fill:rgb(100.000%,100.000%,100.000%);fill-rule:evenodd;opacity:0.3"/> <path style="fill:rgb(9.803%,63.137%,52.941%);fill-rule:evenodd" d="M 167.84375,60.324219 C 88.402344,60.324219 24,124.72656 24,204.16797 c 0,0.54297 0.07813,1.0625 0.08203,1.60156 -0.0078,0.57031 -0.08203,1.11719 -0.08203,1.6875 0,7.58203 0.613281,15.02734 1.769531,22.29297 0.371094,1.76562 0.972657,3.26953 1.46875,4.89062 7.015625,22.89063 25.285157,32.09375 25.285157,32.09375 4.433593,3.58204 9.949218,7.23438 16.3125,10.84375 h -0.53125 c 0,0 13.347656,71.09766 37.812502,70.49219 18.5039,-0.45312 33.02734,-36.73828 56.55468,-36 23.50391,0.74219 33.04297,35.75781 56.4336,36 13.51172,0.14453 25.48047,-17.14844 32.89453,-36 h 6.76953 c 22.24219,20.70313 72.80078,40.16016 94.70703,47.30078 0.30078,-0.15625 0.54297,-0.32812 0.71094,-0.54297 5.36328,-6.8789 -32.46094,-69.38671 -53.41016,-99.80859 6.98828,-16.91406 10.91016,-35.41406 10.91016,-54.85156 0,-79.44141 -64.40234,-143.843751 -143.84375,-143.843751 z m 0,0"/> <use width="100%" height="100%" x="0" y="0" mask="url(#mask3)" transform="translate(0,-1.5)" xlink:href="#surface14"/> <path style="fill:rgb(100.000%,100.000%,100.000%);fill-rule:evenodd" d="m 120,162.07031 c 0,9.94141 -8.05859,18 -18,18 -9.941406,0 -18,-8.05859 -18,-18 0,-9.9375 8.058594,-18 18,-18 9.94141,0 18,8.0625 18,18 z m 0,0"/> <path d="M 223.79102 80.431641 C 117.86914 80.431641 32 166.30274 32 272.22461 C 32 272.94856 32.104175 273.64063 32.109375 274.35938 C 32.098975 275.11979 32 275.84896 32 276.60938 C 32 277.6408 32.014326 278.6697 32.03125 279.69727 C 33.385934 174.94166 118.71395 90.431641 223.79102 90.431641 C 328.02369 90.431641 412.83888 173.58504 415.51758 277.17188 C 415.55991 275.52767 415.58398 273.87923 415.58398 272.22461 C 415.58398 166.30274 329.71291 80.431642 223.79102 80.431641 z M 403.51367 349.01172 C 402.71935 351.1432 401.90296 353.26372 401.03711 355.35938 C 424.54793 389.50114 463.99065 453.94273 471.62695 478.96094 C 471.87316 478.80421 472.09342 478.63779 472.25 478.4375 C 479.199 469.52477 431.83015 390.68661 403.51367 349.01172 z" transform="scale(0.75)" style="fill:rgb(100.000%,100.000%,100.000%);fill-rule:evenodd;opacity:0.3"/> <path d="M 415.51758 267.17188 C 414.89686 291.2812 409.75994 314.24712 401.03711 335.35938 C 401.82629 336.5054 402.69038 337.80003 403.51367 339.01172 C 411.26735 318.2056 415.58398 295.73297 415.58398 272.22461 C 415.58398 270.5354 415.56099 268.85062 415.51758 267.17188 z M 32.03125 269.69727 C 32.020358 270.53949 32 271.3798 32 272.22461 C 32 272.94856 32.104175 273.64063 32.109375 274.35938 C 32.098975 275.11979 32 275.84896 32 276.60938 C 32 286.71875 32.81771 296.64648 34.359375 306.33398 C 34.854168 308.68814 35.656903 310.69208 36.318359 312.85352 C 45.672527 343.37436 70.03125 355.64648 70.03125 355.64648 C 75.942707 360.42252 83.296874 365.29104 91.78125 370.10352 L 91.072266 370.10352 C 91.072266 370.10352 108.87045 464.90103 141.49023 464.09375 C 166.16211 463.48959 185.52671 415.10936 216.89648 416.09375 C 248.23504 417.08332 260.95312 463.77083 292.14062 464.09375 C 310.15627 464.28644 326.11459 441.22915 336 416.09375 L 345.02539 416.09375 C 374.68164 443.69791 442.09441 469.64128 471.30273 479.16211 C 471.70377 478.95379 472.02604 478.72398 472.25 478.4375 C 473.38196 476.98566 473.06305 473.6659 471.62695 468.96094 C 471.52101 469.02838 471.42339 469.09944 471.30273 469.16211 C 442.09441 459.64128 374.68164 433.69791 345.02539 406.09375 L 336 406.09375 C 326.11459 431.22915 310.15627 454.28644 292.14062 454.09375 C 260.95312 453.77083 248.23504 407.08332 216.89648 406.09375 C 185.52671 405.10936 166.16211 453.48959 141.49023 454.09375 C 108.87044 454.90103 91.072266 360.10352 91.072266 360.10352 L 91.78125 360.10352 C 83.296877 355.29104 75.942711 350.42252 70.03125 345.64648 C 70.03125 345.64648 45.672526 333.37436 36.318359 302.85352 C 35.656902 300.69208 34.854167 298.68814 34.359375 296.33398 C 32.974999 287.63486 32.180205 278.74128 32.03125 269.69727 z" transform="scale(0.75)" style="fill:rgb(0%,0%,0%);fill-rule:evenodd;opacity:0.3"/> </svg>

<svg width="512" height="512" version="1.1" viewBox="0 0 384 384" xmlns="http://www.w3.org/2000/svg"><defs><clipPath><rect width="384" height="384"/></clipPath></defs><path d="m169.15 114.89c-25.406 0-48.508 1.5274-68.227 6.1172-43.059 2.4922-76.922 87.562-76.922 95.836 0.03125 19.461 5.043 38.445 14.367 54.445 23.289 48.055 72.488 81.211 129.47 81.211 26.581 0 51.474-7.2162 72.841-19.786 41.217 14.605 108.45 37.141 113.53 30.621 5.8346-7.4871-34.696-70.198-53.764-98.823 7.2428-17.171 11.249-36.042 11.249-55.849 0-79.441-63.105-93.773-142.55-93.773z" opacity=".3"/><path d="m349.74 357.71s16.453-29.891 12.703-36.281c-3.2969-5.6211-33.555-4.2422-33.555-4.2422s25.613-31.066 21.559-37.98c-3.9961-6.8125-47.449-10.637-47.449-10.637s47.434-15.855 48.793-23.648c1.4258-8.1719-42.484-37.695-42.484-37.695s32.605-54.352 29.547-61.605c-3.8398-9.1016-50.25-9.0508-50.25-9.0508s20.551-65.836 12.086-71.195c-7.1094-4.5-85.879 19.934-85.879 19.934s-23.605-56.738-36.746-56.738c-13.227 0-41.164 56.82-41.164 56.82s-47.582-37.641-56.172-32.758c-7.5898 4.3125-4.1641 65.957-4.1641 65.957z" fill-rule="evenodd" opacity=".3"/><path d="m346.74 353.21s16.453-29.891 12.703-36.281c-3.2969-5.6211-33.555-4.2422-33.555-4.2422s25.613-31.066 21.559-37.98c-3.9961-6.8125-47.449-10.637-47.449-10.637s47.434-15.855 48.793-23.648c1.4258-8.1719-42.484-37.695-42.484-37.695s32.605-54.352 29.547-61.605c-3.8398-9.1016-50.25-9.0508-50.25-9.0508s20.551-65.836 12.086-71.195c-7.1094-4.5-85.879 19.934-85.879 19.934s-23.605-56.738-36.746-56.738c-13.227 0-41.164 56.82-41.164 56.82s-47.582-37.641-56.172-32.758c-7.5898 4.3125-4.1641 65.957-4.1641 65.957z" fill="#4b4b4b" fill-rule="evenodd"/><path transform="scale(.75)" d="m225.53 147.19c-33.875 0-64.677 2.0365-90.969 8.1562-57.411 3.3229-102.56 116.75-102.56 127.78 0.041667 25.948 6.724 51.26 19.156 72.594 31.052 64.073 96.651 108.28 172.62 108.28 35.441 0 68.632-9.6215 97.121-26.381 54.956 19.474 144.6 49.521 151.38 40.828 7.7795-9.9828-46.261-93.597-71.686-131.76 9.657-22.894 14.998-48.056 14.998-74.465 0-105.92-84.141-125.03-190.06-125.03z" fill="#49ade5"/><g fill-rule="evenodd"><path transform="scale(.75)" d="m233.42 32.094c-17.635 0-54.885 75.76-54.885 75.76s-63.443-50.186-74.896-43.676c-10.12 5.75-5.5527 87.941-5.5527 87.941l3.8711 3.3887c-0.61572-12.527-3.5058-80.11 5.6816-85.33 11.453-6.5104 74.896 43.676 74.896 43.676s37.249-75.76 54.885-75.76c5.0166 0 11.178 6.214 17.416 15.066-7.5527-11.923-15.327-21.066-21.416-21.066zm159.62 48.34c-20.578-0.36079-103.21 25.022-109.39 26.93 1.7285 3.9192 2.7578 6.3809 2.7578 6.3809s97.025-30.094 112.97-27.1c-0.37192-2.7296-1.1556-4.6508-2.4629-5.4785-0.74057-0.46875-2.0637-0.70067-3.875-0.73242zm-6.4609 95.752c-1.0271 3.4407-1.7793 5.9082-1.7793 5.9082s48.671-0.04484 63.238 8.416c0.07193-0.98072 0.00245-1.7767-0.23828-2.3477-4.1988-9.9523-46.111-11.671-61.221-11.977zm27.189 97.82c-0.66022 1.1132-1.3633 2.2969-1.3633 2.2969s38.911 26.166 52.254 41.736c-4.2167-10.846-37.95-35.038-50.891-44.033zm2.2461 79.854c-7.0724 2.5729-12.021 4.2344-12.021 4.2344s46.071 4.0614 59.809 11.385c0.09643-1.2866-0.05957-2.3788-0.54297-3.2031-3.5022-5.9705-29.676-10.205-47.244-12.416zm31.496 62.871c-1.5077-0.01483-2.759 0.00171-4.0918 0.00976-2.8873 3.7163-4.9043 6.1758-4.9043 6.1758s30.724-1.3991 41.467 3.2266c0.0035-1.4661-0.21314-2.692-0.72851-3.5703-2.7474-4.6842-19.536-5.7217-31.742-5.8418z" fill="#fff" opacity=".3"/><path d="m167.84 60.324c-79.441 0-143.84 64.402-143.84 143.84 0 0.54297 0.07813 1.0625 0.08203 1.6016-0.0078 0.57031-0.08203 1.1172-0.08203 1.6875 0 7.582 0.61328 15.027 1.7695 22.293 0.37109 1.7656 0.97266 3.2695 1.4688 4.8906 7.0156 22.891 25.285 32.094 25.285 32.094 4.4336 3.582 9.9492 7.2344 16.312 10.844h-0.53125s13.348 71.098 37.813 70.492c18.504-0.45312 33.027-36.738 56.555-36 23.504 0.74219 33.043 35.758 56.434 36 13.512 0.14453 25.48-17.148 32.895-36h6.7695c22.242 20.703 72.801 40.16 94.707 47.301 0.30078-0.15625 0.54297-0.32812 0.71094-0.54297 5.3633-6.8789-32.461-69.387-53.41-99.809 6.9883-16.914 10.91-35.414 10.91-54.852 0-79.441-64.402-143.84-143.84-143.84z" fill="#18a086"/><path d="m120 169.57c0 9.9414-8.0586 18-18 18s-18-8.0586-18-18c0-9.9375 8.0586-18 18-18s18 8.0625 18 18z" opacity=".3"/><path d="m120 162.07c0 9.9414-8.0586 18-18 18-9.9414 0-18-8.0586-18-18 0-9.9375 8.0586-18 18-18 9.9414 0 18 8.0625 18 18z" fill="#fff"/><path transform="scale(.75)" d="m223.79 80.432c-105.92 0-191.79 85.871-191.79 191.79 0 0.72395 0.10418 1.416 0.10938 2.1348-0.0104 0.76041-0.10938 1.4896-0.10938 2.25 0 1.0314 0.014326 2.0603 0.03125 3.0879 1.3547-104.76 86.683-189.27 191.76-189.27 104.23 0 189.05 83.153 191.73 186.74 0.04233-1.6442 0.0664-3.2926 0.0664-4.9473 0-105.92-85.871-191.79-191.79-191.79zm179.72 268.58c-0.79432 2.1315-1.6107 4.252-2.4766 6.3477 23.511 34.142 62.954 98.583 70.59 123.6 0.24621-0.15673 0.46647-0.32315 0.62305-0.52344 6.949-8.9127-40.42-87.751-68.736-129.43z" fill="#fff" opacity=".3"/><path transform="scale(.75)" d="m415.52 267.17c-0.62072 24.109-5.7576 47.075-14.48 68.188 0.78918 1.146 1.6533 2.4406 2.4766 3.6523 7.7537-20.806 12.07-43.279 12.07-66.787 0-1.6892-0.02299-3.374-0.0664-5.0527zm-383.49 2.5254c-0.010892 0.84222-0.03125 1.6825-0.03125 2.5273 0 0.72395 0.10418 1.416 0.10938 2.1348-0.0104 0.76041-0.10938 1.4896-0.10938 2.25 0 10.109 0.81771 20.037 2.3594 29.725 0.49479 2.3542 1.2975 4.3581 1.959 6.5195 9.3542 30.521 33.713 42.793 33.713 42.793 5.9115 4.776 13.266 9.6446 21.75 14.457h-0.70898s17.798 94.798 50.418 93.99c24.672-0.60416 44.036-48.984 75.406-48 31.339 0.98957 44.057 47.677 75.244 48 18.016 0.19269 33.974-22.865 43.859-48h9.0254c29.656 27.604 97.069 53.548 126.28 63.068 0.40104-0.20832 0.72331-0.43813 0.94727-0.72461 1.132-1.4518 0.81305-4.7716-0.62305-9.4766-0.10594 0.06744-0.20356 0.1385-0.32422 0.20117-29.208-9.5208-96.621-35.464-126.28-63.068h-9.0254c-9.8854 25.135-25.844 48.193-43.859 48-31.188-0.32292-43.906-47.01-75.244-48-31.37-0.98439-50.734 47.396-75.406 48-32.62 0.80728-50.418-93.99-50.418-93.99h0.70898c-8.4844-4.8125-15.839-9.681-21.75-14.457 0 0-24.359-12.272-33.713-42.793-0.66146-2.1614-1.4642-4.1654-1.959-6.5195-1.3844-8.6991-2.1792-17.593-2.3281-26.637z" opacity=".3"/></g></svg>
